svgs/sharp-regular/note-sticky.svg

<svg xmlns="http://www.w3.org/2000/svg" viewBox="0 0 448 512"><!--! Font Awesome Pro 6.6.0 by @fontawesome - https://fontawesome.com License - https://fontawesome.com/license (Commercial License) Copyright 2024 Fonticons, Inc. --><path d="M48 80l0 352 240 0 0-112 112 0 0-240L48 80zM288 480L48 480 0 480l0-48L0 80 0 32l48 0 352 0 48 0 0 48 0 240 0 32L320 480l-32 0z"/></svg>

<svg xmlns="http://www.w3.org/2000/svg" viewBox="0 0 448 512"><!--! Font Awesome Pro 6.4.0 by @fontawesome - https://fontawesome.com License - https://fontawesome.com/license (Commercial License) Copyright 2023 Fonticons, Inc. --><path d="M48 80V432H288V320H400V80H48zM288 480H48 0V432 80 32H48 400h48V80 320v32L320 480H288z"/></svg>
